!!!!SEGMENT: pl-wtm--r-1544--003_stefani-jozef--msza-no-9-graduale.krn
!!!cenid: 18xx:1795
!!!COM: Stefani, Józef
!!!COM-rismid: pe30024097
!!!CDT: 1800/04/16-1876/03/19
!!!CNT: Polish
!!!OTL: Msza No 9 – Graduale
!!!PDT: 1846
!!!AGN: Sacred; Mass
!!!SMS-siglum: PL-Wtm
!!!SMS-shelfmark: R 1544
!!!SMS-shelfwork: 001-003 M
!!!SMS-variant:
!!!SMS-altvar:
!!!NIFC-rismid: 1001120493
!!!URL-scan: http://repozytorium.nifc.pl/skany/pl-wtm-nut--r1544
!!!ONB-nifc: UWAGA: części Mszy: 1. Kyrie, 2. Gloria, 3. Graduale, 4. Credo, 5. Offertorium,
**kern	**kern	**dynam	**kern	**text	**dynam	**kern	**text	**dynam	**kern	**text	**dynam	**kern	**text	**dynam	**kern	**dynam	**kern	**dynam	**kern	**dynam	**kern	**dynam	**kern	**dynam	**kern	**dynam	**kern	**dynam	**kern	**dynam	**kern	**dynam
*part15	*part14	*part14	*part13	*part13	*part13	*part12	*part12	*part12	*part11	*part11	*part11	*part10	*part10	*part10	*part9	*part9	*part8	*part8	*part7	*part7	*part6	*	*part5	*part5	*part4	*part4	*part3	*part3	*part2	*part2	*part1	*part1
*	*	*	*group3	*	*	*group3	*	*	*group3	*	*	*group3	*	*	*	*	*group2	*	*group2	*	*group1	*	*group1	*	*group1	*	*group1	*	*group1	*	*group1	*
*staff15	*staff14	*	*staff13	*staff13	*	*staff12	*staff12	*	*staff11	*staff11	*	*staff10	*staff10	*	*staff9	*	*staff8	*	*staff7	*	*staff6	*	*staff5	*	*staff4	*	*staff3	*	*staff2	*	*staff1	*
*I"Tympani	*I"Basßi	*	*I"Basßo	*	*	*I"Tenore	*	*	*I"2o Soprano	*	*	*I"1o Soprano	*	*	*I"Viole	*	*	*	*I"Violini	*	*I"in C Trombe	*	*I"Fagotti	*	*I"in C Corni	*	*I"in C Clarinetti	*	*I"Oboe	*	*I"Flauto	*
*I'timp	*I'cb	*	*I'B	*	*	*I't	*	*	*I's 2	*	*	*I's 1	*	*	*I'vle	*	*	*	*I'vl 1	*	*I'tr	*	*I'fg	*	*I'cor	*	*I'cl	*	*I'ob	*	*I'fl	*
*clefF4	*clefF4	*	*clefF4	*	*	*clefC4	*	*	*clefG2	*	*	*clefG2	*	*	*clefC3	*	*clefG2	*	*clefG2	*	*clefG2	*	*clefF4	*	*clefG2	*	*clefG2	*	*clefG2	*	*clefG2	*
*	*	*	*	*	*	*	*	*	*	*	*	*	*	*	*	*	*	*	*	*	*	*	*	*	*Trd0c0	*	*	*	*	*	*	*
*k[f#c#g#]	*k[f#c#g#]	*	*k[f#c#g#]	*	*	*k[f#c#g#]	*	*	*k[f#c#g#]	*	*	*k[f#c#g#]	*	*	*k[f#c#g#]	*	*k[f#c#g#]	*	*k[f#c#g#]	*	*k[]	*	*k[f#c#g#]	*	*k[]	*	*k[f#c#g#]	*	*k[f#c#g#]	*	*k[f#c#g#]	*
*A:	*A:	*	*A:	*	*	*A:	*	*	*A:	*	*	*A:	*	*	*A:	*	*A:	*	*A:	*	*A:	*	*A:	*	*A:	*	*A:	*	*A:	*	*A:	*
*M3/4	*M3/4	*	*M3/4	*	*	*M3/4	*	*	*M3/4	*	*	*M3/4	*	*	*M3/4	*	*M3/4	*	*M3/4	*	*M3/4	*	*M3/4	*	*M3/4	*	*M3/4	*	*M3/4	*	*M3/4	*
=1	=1	=1	=1	=1	=1	=1	=1	=1	=1	=1	=1	=1	=1	=1	=1	=1	=1	=1	=1	=1	=1	=1	=1	=1	=1	=1	=1	=1	=1	=1	=1	=1
*	*	*	*	*	*	*	*	*	*	*	*	*	*	*	*	*	*	*	*	*	*	*	*	*	*	*	*^	*	*	*	*	*
*	*	*	*	*	*	*	*	*	*	*	*	*	*	*	*	*	*	*	*	*	*	*	*2\right	*	*	*	*	*	*	*	*	*	*
!	!	!	!	!	!	!	!	!	!	!	!	!	!	!	!	!	!	!	!	!	!	!	!	!	!	!LO:HP:a	!	!	!	!	!	!	!
2.ryy	2.r	.	2.r	.	.	2.r	.	.	2.r	.	.	2.r	.	.	2.r	.	2.r	.	2.r	.	2.r	.	(2.e\	>	[2.ee [2.e/	>]	4r	4rAyy	.	4r	.	4r	.
!	!	!	!	!	!	!	!	!	!	!	!	!	!	!	!	!	!	!	!	!	!	!	!	!	!	!	!	!	!	!	!	!	!LO:DY:a
.	.	.	.	.	.	.	.	.	.	.	.	.	.	.	.	.	.	.	.	.	.	.	.	.	.	.	4r	4rAyy	.	4r	.	4r	mf
.	.	.	.	.	.	.	.	.	.	.	.	.	.	.	.	.	.	.	.	.	.	.	.	]	.	.	4e/	4e\	.	4ee\	.	(4ee\	.
=2	=2	=2	=2	=2	=2	=2	=2	=2	=2	=2	=2	=2	=2	=2	=2	=2	=2	=2	=2	=2	=2	=2	=2	=2	=2	=2	=2	=2	=2	=2	=2	=2	=2
*	*	*	*	*	*	*	*	*	*	*	*	*	*	*	*	*	*	*	*	*	*	*	*	*	*	*	*	*	*	*2\right	*	*	*
2.ryy	2.r	.	2.r	.	.	2.r	.	.	2.r	.	.	2.r	.	.	2.r	.	2.r	.	2.r	.	2.r	.	4A\)	.	4ee] 4e/]	.	4cc#/	4e\	.	[2aa\	.	4ccc#\	.
.	.	.	.	.	.	.	.	.	.	.	.	.	.	.	.	.	.	.	.	.	.	.	4.f#\	.	4r	.	4.a/	4.c#\	.	.	.	4.aa\)	.
.	.	.	.	.	.	.	.	.	.	.	.	.	.	.	.	.	.	.	.	.	.	.	.	.	4r	.	.	.	.	8aa\L]	.	.	.
.	.	.	.	.	.	.	.	.	.	.	.	.	.	.	.	.	.	.	.	.	.	.	8e\	.	.	.	8a/	8e\	.	8gg#\J	.	8bb\|	.
=3	=3	=3	=3	=3	=3	=3	=3	=3	=3	=3	=3	=3	=3	=3	=3	=3	=3	=3	=3	=3	=3	=3	=3	=3	=3	=3	=3	=3	=3	=3	=3	=3	=3
2.ryy	2.r	.	2.r	.	.	2.r	.	.	2.r	.	.	2.r	.	.	2.r	.	2.r	.	2.r	.	2.r	.	4A\	<	2.r	.	4cc#/	4e\	.	[2aa\	.	(4ccc#\	<
.	.	.	.	.	.	.	.	.	.	.	.	.	.	.	.	.	.	.	.	.	.	.	4.f#\	.	.	.	4.a/	4.c#\	<	.	<	4.aa\)	.
.	.	.	.	.	.	.	.	.	.	.	.	.	.	.	.	.	.	.	.	.	.	.	.	.	.	.	.	.	.	8aa\L]	.	.	.
.	.	.	.	.	.	.	.	.	.	.	.	.	.	.	.	.	.	.	.	.	.	.	8d\	[[	.	.	8b/	8f#\	[[	8ff#\J	[	8bb\|	[ f
=4	=4	=4	=4	=4	=4	=4	=4	=4	=4	=4	=4	=4	=4	=4	=4	=4	=4	=4	=4	=4	=4	=4	=4	=4	=4	=4	=4	=4	=4	=4	=4	=4	=4
*	*	*	*	*	*	*	*	*	*	*	*	*	*	*	*	*	*	*	*	*	*	*	*	*	*	*	*	*2\right	*	*	*	*2\right	*
!	!	!	!	!	!	!	!	!	!	!	!	!	!	!	!	!	!	!	!	!	!	!	!	!LO:DY:rj	!	!	!	!	!LO:DY:rj	!	!LO:DY:rj	!	!
2.ryy	2.r	.	2.r	.	.	2.r	.	.	2.r	.	.	2.r	.	.	2.r	.	2.r	.	2.r	.	2.g#X 2.c#X/	.	2.c#\	f > ]]	2.r	.	2.cc#/	2.e#X\	f > ]	2.ee#X\	f > ]	2.ccc#\	> ]
=5	=5	=5	=5	=5	=5	=5	=5	=5	=5	=5	=5	=5	=5	=5	=5	=5	=5	=5	=5	=5	=5	=5	=5	=5	=5	=5	=5	=5	=5	=5	=5	=5	=5
*	*	*	*	*	*	*	*	*	*	*	*	*	*	*	*	*	*	*	*	*	*	*	*	*	*^	*	*	*	*	*	*	*	*
*	*	*	*	*	*	*	*	*	*	*	*	*	*	*	*	*	*	*	*	*	*	*	*	*	*	*2\right	*	*	*	*	*	*	*	*
2.ryy	2.r	.	2.r	.	.	2.r	.	.	2.r	.	.	2.r	.	.	2.r	.	2.r	.	2.r	.	2.r	.	2.d\	p	2.dd/	2.dd\	p	2.b/	2.f#\	.	2.ff#\	.	2.bb\	.
=6	=6	=6	=6	=6	=6	=6	=6	=6	=6	=6	=6	=6	=6	=6	=6	=6	=6	=6	=6	=6	=6	=6	=6	=6	=6	=6	=6	=6	=6	=6	=6	=6	=6	=6
2.ryy	2.r	.	2.r	.	.	2.r	.	.	2.r	.	.	2.r	.	.	2.r	.	2.r	.	2.r	.	2.r	.	2.e\	.	[2.ee/	2.ee\	.	2cc#/	2.a\	.	2een\	.	[2.aa\	.
.	.	.	.	.	.	.	.	.	.	.	.	.	.	.	.	.	.	.	.	.	.	.	.	.	.	.	.	4b#X/	.	.	4dd#X\	.	.	.
=7	=7	=7	=7	=7	=7	=7	=7	=7	=7	=7	=7	=7	=7	=7	=7	=7	=7	=7	=7	=7	=7	=7	=7	=7	=7	=7	=7	=7	=7	=7	=7	=7	=7	=7
2.ryy	2.r	.	2.r	.	.	2.r	.	.	2.r	.	.	2.r	.	.	2.r	.	2.r	.	2.r	.	2.r	.	2.E\	.	2.ee/]	2.ee\	.	2.bn/	2.e\	.	2.ddn\	.	4aa\]	.
.	.	.	.	.	.	.	.	.	.	.	.	.	.	.	.	.	.	.	.	.	.	.	.	.	.	.	.	.	.	.	.	.	8gg#\L	.
.	.	.	.	.	.	.	.	.	.	.	.	.	.	.	.	.	.	.	.	.	.	.	.	.	.	.	.	.	.	.	.	.	8ff#\J	.
.	.	.	.	.	.	.	.	.	.	.	.	.	.	.	.	.	.	.	.	.	.	.	.	.	.	.	.	.	.	.	.	.	4gg#\	.
!!LO:PB:g=original
=8	=8	=8	=8	=8	=8	=8	=8	=8	=8	=8	=8	=8	=8	=8	=8	=8	=8	=8	=8	=8	=8	=8	=8	=8	=8	=8	=8	=8	=8	=8	=8	=8	=8	=8
*	*	*	*	*	*	*	*	*	*	*	*	*	*	*	*	*	*	*	*	*	*^	*	*	*	*	*	*	*	*	*	*	*	*	*
2.ryy	2.r	.	2.r	.	.	2.r	.	.	2.r	.	.	2.r	.	.	2.r	.	2.r	.	2.r	.	4r	4rAyy	.	2A\	<	2ee/	2ee\	<	2cc#/	2a\	<	2cc#\	<	(2aa\	<
.	.	.	.	.	.	.	.	.	.	.	.	.	.	.	.	.	.	.	.	.	4r	4rAyy	.	.	[	.	.	.	.	.	[	.	[	.	.
.	.	.	.	.	.	.	.	.	.	.	.	.	.	.	.	.	.	.	.	.	4ccn/	4a\	> ]	4D#X\	> ]]	4dd#X/	4dd#\	[ >	4ccn/	4a\	> ]	4ff#\	> ]	4fff#\	[ > ]
=9	=9	=9	=9	=9	=9	=9	=9	=9	=9	=9	=9	=9	=9	=9	=9	=9	=9	=9	=9	=9	=9	=9	=9	=9	=9	=9	=9	=9	=9	=9	=9	=9	=9	=9	=9
*	*	*	*	*	*	*	*	*	*	*	*	*	*	*	*	*	*	*	*	*	*	*2\right	*	*	*	*	*	*	*	*	*	*	*	*	*
2.ryy	4r	.	4r	.	.	4r	.	.	4r	.	.	4r	.	.	4r	.	4r	.	4r	.	2b/	2g#X\	.	2E\	.	2ee/	2ee\	]	2b/	2g#X\	.	2ee\	.	2eee\)	.
.	4r	.	4r	.	.	4r	.	.	4r	.	.	4r	.	.	4r	.	4r	.	4r	.	.	.	.	.	.	.	.	.	.	.	.	.	.	.	.
.	4E\	.	4E\	.	.	4e\	.	.	4e/	.	.	4e/	Po-	.	4e\	.	4e/	.	4e/	mf	4r	4rAyy	.	4r	.	4r	4rcyy	.	4r	4rAyy	.	4r	.	4r	.
*	*	*	*	*	*	*	*	*	*	*	*	*	*	*	*	*	*	*	*	*	*	*	*	*	*	*v	*v	*	*	*	*	*	*	*	*
*	*	*	*	*	*	*	*	*	*	*	*	*	*	*	*	*	*	*	*	*	*v	*v	*	*	*	*	*	*v	*v	*	*	*	*	*
=10	=10	=10	=10	=10	=10	=10	=10	=10	=10	=10	=10	=10	=10	=10	=10	=10	=10	=10	=10	=10	=10	=10	=10	=10	=10	=10	=10	=10	=10	=10	=10	=10
2.ryy	(4AA/	.	(4AA/	.	.	(4e\	.	.	[2a/	.	.	(4cc#/	-wstań-	.	(4e\	.	[2a/	.	(4cc#\	.	2.r	.	2.r	.	2.r	.	2.r	.	2.r	.	2.r	.
.	4.F#\)	.	4.F#\)	.	.	4.c#\)	.	.	.	.	.	4.a/)	.	.	4.c#\)	.	.	.	4.a\)	.	.	.	.	.	.	.	.	.	.	.	.	.
.	.	.	.	.	.	.	.	.	8a/]	.	.	.	.	.	.	.	8a/L]	.	.	.	.	.	.	.	.	.	.	.	.	.	.	.
.	8E\	.	8E\	.	.	8e\	.	.	8g#/	.	.	8b/	-cie	.	8e\	.	8g#/J|	.	8b\|	.	.	.	.	.	.	.	.	.	.	.	.	.
=11	=11	=11	=11	=11	=11	=11	=11	=11	=11	=11	=11	=11	=11	=11	=11	=11	=11	=11	=11	=11	=11	=11	=11	=11	=11	=11	=11	=11	=11	=11	=11	=11
2.ryy	(4AA/	.	4AA/	.	.	4e\	.	.	4a/	swia-	.	4cc#/	swia-	.	4e\	.	[4a/	.	4cc#\	.	2.r	.	2.r	.	2.r	.	2.r	.	2.r	.	2.r	.
.	4.F#\)	.	4.F#\	.	.	4.c#\	.	.	4.a/	-tło-	.	4.a/	-tło-	.	4.c#\	.	4.a/]	.	4.a\	.	.	.	.	.	.	.	.	.	.	.	.	.
.	8E\	.	8E\	.	.	8e\	.	.	8g#/	-ści	.	8b/	-ści	.	8e\	.	8g#/|	.	8b\|	.	.	.	.	.	.	.	.	.	.	.	.	.
=12	=12	=12	=12	=12	=12	=12	=12	=12	=12	=12	=12	=12	=12	=12	=12	=12	=12	=12	=12	=12	=12	=12	=12	=12	=12	=12	=12	=12	=12	=12	=12	=12
*	*	*	*	*	*	*	*	*	*	*	*	*	*	*	*	*	*	*	*	*	*	*	*	*	*	*	*^	*	*	*	*	*
*	*	*	*	*	*	*2\right	*	*	*	*	*	*2\right	*	*	*2\right	*	*	*	*2\right	*	*	*	*	*	*	*	*	*	*	*	*	*	*
!	!	!	!	!	!	!	!	!	!	!	!	!	!	!	!	!	!	!	!	!	!	!	!	!	!	!	!	!	!LO:DY:a:rj	!	!	!	!
2.ryy	2AA/	.	(2AA/	.	.	2.e\	.	.	2.a/	.	.	(2cc#\	Sy-	.	[2.e\	.	2.a/	.	(2cc#\	.	2.r	.	(2A\	mf	2.r	.	(2cc#/	2.a\	mf	2.r	.	2.r	.
.	4C#/	.	4C#/)	.	.	.	.	.	.	.	.	4ee\)	.	.	.	.	.	.	4ee\)	.	.	.	4c#\	.	.	.	4ee/)	.	.	.	.	.	.
=13	=13	=13	=13	=13	=13	=13	=13	=13	=13	=13	=13	=13	=13	=13	=13	=13	=13	=13	=13	=13	=13	=13	=13	=13	=13	=13	=13	=13	=13	=13	=13	=13	=13
*	*2\right	*	*2\right	*	*	*	*	*	*	*	*	*	*	*	*	*	*	*	*	*	*	*	*	*	*	*	*	*	*	*	*	*	*
2.ryy	2E\	.	2E\	.	.	2e\	.	.	2g#/	.	.	2b\	-ny	.	2e\]	.	2g#/	.	2b\	.	2.r	.	2e\)	.	2.r	.	2b/	2g#\	.	4r	.	4r	.
.	.	.	.	.	.	.	.	.	.	.	.	.	.	.	.	.	.	.	.	.	.	.	.	.	.	.	.	.	.	4r	.	4r	.
.	4E#X\	.	4E#X\	.	.	4d\	.	.	4g#/	.	.	4b^\	Po-	.	4d^<\	.	4g#^/	.	4b^<\	.	.	.	4e#X^<\	.	.	.	4dd/	4r	.	4gg#^<\	.	4bb^<\	.
=14	=14	=14	=14	=14	=14	=14	=14	=14	=14	=14	=14	=14	=14	=14	=14	=14	=14	=14	=14	=14	=14	=14	=14	=14	=14	=14	=14	=14	=14	=14	=14	=14	=14
!	!	!	!	!	!	!	!	!	!	!	!	!	!	!	!	!	!	!	!	!	!	!	!	!	!	!	!	!	!	!	!LO:DY:rj	!	!LO:DY:rj
2.ryy	(4F#\	.	(4F#\	.	.	(4c#\	.	.	2f#/	.	.	2a/	-kor-	p	8c#\L	.	8f#/L	p	8a/L	p	2.r	.	(4f#\	p	2.r	.	(4cc#/	2.r	.	2.ff#\	p	(2aa\	p
.	.	.	.	.	.	.	.	.	.	.	.	.	.	.	8c#\J	.	8f#/J	.	8a/J	.	.	.	.	.	.	.	.	.	.	.	.	.	.
.	4E\)	.	4E\)	.	.	4cn\)	.	.	.	.	.	.	.	.	8r	.	8r	.	8r	.	.	.	4e\	.	.	.	4ccn/	.	.	.	.	.	.
.	.	.	.	.	.	.	.	.	.	.	.	.	.	.	8cn\	.	8f#/	.	8a/	.	.	.	.	.	.	.	.	.	.	.	.	.	.
.	4D#X\	.	4D#X\	.	.	4B\	.	.	4f#/	.	.	4b/	-nem	.	8r	.	8r	.	8r	.	.	.	4d#X\)	.	.	.	4b/)	.	.	.	.	4bb\)	.
.	.	.	.	.	.	.	.	.	.	.	.	.	.	.	8B\	.	8f#/	.	8b/	.	.	.	.	.	.	.	.	.	.	.	.	.	.
!!LO:PB:g=original
=15	=15	=15	=15	=15	=15	=15	=15	=15	=15	=15	=15	=15	=15	=15	=15	=15	=15	=15	=15	=15	=15	=15	=15	=15	=15	=15	=15	=15	=15	=15	=15	=15	=15
*	*^	*	*	*	*	*	*	*	*	*	*	*	*	*	*	*	*	*	*	*	*	*	*^	*	*	*	*	*	*	*	*	*	*
2.ryy	(4.e/	2E\	.	2E\	.	.	(4.e\	.	.	(4.e/	.	.	(4.g#/	czu-	.	8r	.	8r	.	8r	.	4.g#X 4.e/	.	(4.e/	2E\	.	4r	.	(4.ee/	2.re	.	(4.ee\	.	(4.gg#\	.
.	.	.	.	.	.	.	.	.	.	.	.	.	.	.	.	8e'\L	.	8e'/L	.	8g#'/L	.	.	.	.	.	.	.	.	.	.	.	.	.	.	.
!	!	!	!LO:HP:b	!	!	!	!	!	!	!	!	!	!	!	!	!	!	!	!	!	!	!	!	!	!	!	!	!	!	!	!	!	!	!	!
.	.	.	<	.	.	.	.	.	.	.	.	.	.	.	.	(8e\	.	(8e/	.	(8g#/	.	.	.	.	.	.	4r	.	.	.	.	.	.	.	.
!	!	!	!	!	!	!	!	!	!	!	!	!	!	!	!LO:DY:a	!	!	!	!	!	!	!	!	!	!	!	!	!	!	!	!	!	!	!	!
.	8d#X/)	.	.	.	.	.	8d#X\)	.	.	8f#/)	.	.	8a/)	.	<	8d#X\J)	.	8f#/J)	<	8a/J)	<	8a 8f#X/	.	8d#X/)	.	.	.	.	8dd#X/)	.	.	8ff#\)	<	8aa\)	<
.	8.dn/L	8.E\L	.	8.E\	.	.	8.dn\	.	.	8.g#/	.	.	8.b\	-ciem	.	8.dn\L|	.	8.g#/L	.	8.b/L|	.	8.bL 8.g#X/	.	8.dn/L	8.E\L	.	8.eeL 8.e/	<	8.ddn/L|	.	.	8.gg#\L|	.	8.bb\L|	.
.	16c#/Jk	16E\Jk	[	16E\	.	.	16c#\	.	.	16a/	.	.	16cc#\	prze-	[[	16c#\Jk|	.	16a/Jk	[[	16cc#/Jk|	[[	16cc#Jk 16a/	.	16c#/Jk	16E\Jk	.	16eeJk 16e/	[[	16cc#/Jk|	.	.	16aa\Jk|	[[	16ccc#\Jk|	[[
=16	=16	=16	=16	=16	=16	=16	=16	=16	=16	=16	=16	=16	=16	=16	=16	=16	=16	=16	=16	=16	=16	=16	=16	=16	=16	=16	=16	=16	=16	=16	=16	=16	=16	=16	=16
!	!	!	!	!	!	!	!	!	!	!	!	!	!	!	!LO:DY:a	!	!	!	!	!	!	!	!	!	!	!	!	!	!	!	!	!	!	!	!
!	!	!	!LO:DY:b	!	!	!	!	!	!	!	!	!LO:DY:rj	!	!	!LO:DY:a	!	!	!	!	!	!LO:DY:rj	!	!	!	!	!	!	!LO:DY:rj	!	!	!	!	!	!	!
2.ryy	2G#/	4E\	f	2.E\	.	.	2G#/	.	.	2b/	.	f	(2dd\	-ię-	f >	(2G#/	.	[4b/	f	[4dd\	f	2dd 2b\	.	2G#/	2.E\	.	2.ee 2.e/	f >	2g#/	2.re	.	(2bb\	f >	(2ddd\	f >
.	.	4E\	.	.	.	.	.	.	.	.	.	.	.	.	.	.	.	8.b/L]	.	8.dd\L]	.	.	.	.	.	.	.	.	.	.	.	.	.	.	.
.	.	.	.	.	.	.	.	.	.	.	.	.	.	.	.	.	.	16e/Jk	.	16ee\Jk	.	.	.	.	.	.	.	.	.	.	.	.	.	.	.
.	8.A/L	4E\	.	.	.	.	8.A\L	.	.	4a/	.	.	4cc#\)	.	]]	8.A/L)	.	8.a/L	.	8.cc#\L	.	4cc#X 4a\	.	8A/L	.	.	.	]	8a/L	.	.	4aa\)	]]	4ccc#\)	]]
.	.	.	.	.	.	.	.	.	.	.	.	.	.	.	.	.	.	.	.	.	.	.	.	8c#/J	.	.	.	.	8cc#/J	.	.	.	.	.	.
.	16c#/Jk	.	.	.	.	.	16c#\Jk	.	.	.	.	.	.	.	.	16c#/Jk	.	16e/Jk	.	16ee\Jk	.	.	.	.	.	.	.	.	.	.	.	.	.	.	.
=17	=17	=17	=17	=17	=17	=17	=17	=17	=17	=17	=17	=17	=17	=17	=17	=17	=17	=17	=17	=17	=17	=17	=17	=17	=17	=17	=17	=17	=17	=17	=17	=17	=17	=17	=17
2.ryy	2B/	2E\	.	2E\	.	.	2e\	.	.	2g#/	.	.	2b\	-te	.	2e\	.	2g#/	.	2b\	.	2b 2g#X/	.	2B/	2E\	.	2ee 2e/	.	2ee/	2.re	.	2gg#\	.	2bb\	.
.	4rB	4rE	.	4r	.	.	4r	.	.	4g#/	.	.	4b\	Pan	.	4r	.	(4g#/	.	(4b\	.	4r	.	4r	4rCCyy	.	4r	.	4r	.	.	4r	.	4r	.
*	*	*	*	*	*	*	*	*	*	*	*	*	*	*	*	*	*	*	*	*	*	*	*	*v	*v	*	*	*	*v	*v	*	*	*	*	*
=18	=18	=18	=18	=18	=18	=18	=18	=18	=18	=18	=18	=18	=18	=18	=18	=18	=18	=18	=18	=18	=18	=18	=18	=18	=18	=18	=18	=18	=18	=18	=18	=18	=18
*	*	*	*	*	*	*	*	*	*	*	*	*	*	*	*	*	*	*tremolo	*	*tremolo	*	*	*	*	*	*	*	*	*	*	*	*	*
!	!	!	!	!	!	!	!	!	!	!	!	!	!	!	!	!	!	!LO:TX:b:t=......	!	!LO:TX:a:t=......	!	!	!	!	!	!	!	!	!	!	!	!	!
2.ryy	4r	2.rGG	.	2.r	.	.	4r	.	.	2a/	.	.	2cc#\	z gór-	.	4r	.	8a/L)	.	(8cc#'\L)	.	2.r	.	2.r	.	2.r	.	2.r	.	2.r	.	2.r	.
.	.	.	.	.	.	.	.	.	.	.	.	.	.	.	.	.	.	(8a'/	.	8cc#'\	.	.	.	.	.	.	.	.	.	.	.	.	.
.	4r	.	.	.	.	.	4r	.	.	.	.	.	.	.	.	4r	.	8a'/	.	8cc#'\	.	.	.	.	.	.	.	.	.	.	.	.	.
.	.	.	.	.	.	.	.	.	.	.	.	.	.	.	.	.	.	8a'/	.	8cc#'\	.	.	.	.	.	.	.	.	.	.	.	.	.
.	[4A/	.	.	.	.	.	[4A\	Pan	.	4a/	.	.	4cc#\	-nej	.	[4A/	.	8a'/	.	8cc#'\	.	.	.	.	.	.	.	.	.	.	.	.	.
.	.	.	.	.	.	.	.	.	.	.	.	.	.	.	.	.	.	8a'/J)	.	8cc#'\J)	.	.	.	.	.	.	.	.	.	.	.	.	.
=19	=19	=19	=19	=19	=19	=19	=19	=19	=19	=19	=19	=19	=19	=19	=19	=19	=19	=19	=19	=19	=19	=19	=19	=19	=19	=19	=19	=19	=19	=19	=19	=19	=19
!	!	!	!	!	!	!	!	!	!	!	!	!	!	!	!	!	!	!LO:TX:b:t=......	!	!LO:TX:a:t=......	!	!	!	!	!	!	!	!	!	!	!	!	!
2.ryy	4A/]	4rGG	.	4r	.	.	4A\]	.	.	(2.a/	.	.	(2.cc#\	Nie-	.	4A/]	.	(8a'/L	.	(8cc#'\L	.	2.r	.	4r	.	2.r	.	2.r	.	2.r	.	2.r	.
.	.	.	.	.	.	.	.	.	.	.	.	.	.	.	.	.	.	8a'/	.	8cc#'\	.	.	.	.	.	.	.	.	.	.	.	.	.
.	4f#/	4rGG	.	4r	.	.	4f#\	z gór-	.	.	.	.	.	.	.	4f#\	.	8a'/	.	8cc#'\	.	.	.	4r	.	.	.	.	.	.	.	.	.
.	.	.	.	.	.	.	.	.	.	.	.	.	.	.	.	.	.	8a'/	.	8cc#'\	.	.	.	.	.	.	.	.	.	.	.	.	.
.	4e/	4AA\	.	4AA/	Nie-	.	4e\	-nej	.	.	.	.	.	.	.	4e\	.	8a'/	.	8cc#'\	.	.	.	4AA/|	.	.	.	.	.	.	.	.	.
.	.	.	.	.	.	.	.	.	.	.	.	.	.	.	.	.	.	8a'/J)	.	8cc#'\J)	.	.	.	.	.	.	.	.	.	.	.	.	.
=20	=20	=20	=20	=20	=20	=20	=20	=20	=20	=20	=20	=20	=20	=20	=20	=20	=20	=20	=20	=20	=20	=20	=20	=20	=20	=20	=20	=20	=20	=20	=20	=20	=20
*	*	*	*	*	*	*	*	*	*	*	*	*	*	*	*	*tremolo	*	*	*	*	*	*	*	*	*	*	*	*	*	*	*	*	*
2.ryy	4d#X/	4BB\	.	4BB/	.	.	4d#X\	nie-	.	4f#/)	.	.	4b\)	.	.	8d#X\L	.	8f#/L	.	8b\L	.	2.r	.	4BB/|	.	2.r	.	2.r	.	2.r	.	2.r	.
.	.	.	.	.	.	.	.	.	.	.	.	.	.	.	.	8d#\	.	8f#/	.	8b\	.	.	.	.	.	.	.	.	.	.	.	.	.
.	4B/	4B\	.	4B\	-ba	.	4d#\	-ba	.	4f#/	.	.	4b\	-ba	.	8d#\	.	8f#/	.	8b\	.	.	.	(4B\	.	.	.	.	.	.	.	.	.
.	.	.	.	.	.	.	.	.	.	.	.	.	.	.	.	8d#\	.	8f#/	.	8b\	.	.	.	.	.	.	.	.	.	.	.	.	.
.	4A/	4A\	.	4A\	Kra-	.	4d#\	Kra-	.	4f#/	.	.	4b\	Kra-	.	8d#\	.	8f#/	.	8b\	.	.	.	4A\)	.	.	.	.	.	.	.	.	.
.	.	.	.	.	.	.	.	.	.	.	.	.	.	.	.	8d#\J	.	8f#/J	.	8b\J	.	.	.	.	.	.	.	.	.	.	.	.	.
*	*v	*v	*	*	*	*	*	*	*	*	*	*	*	*	*	*	*	*	*	*	*	*	*	*	*	*	*	*	*	*	*	*	*
=21	=21	=21	=21	=21	=21	=21	=21	=21	=21	=21	=21	=21	=21	=21	=21	=21	=21	=21	=21	=21	=21	=21	=21	=21	=21	=21	=21	=21	=21	=21	=21	=21
*	*	*	*	*	*	*	*	*	*	*	*	*	*	*	*	*	*	*	*	*	*	*	*	*	*	*	*^	*	*	*	*	*
*	*tremolo	*	*	*	*	*	*	*	*	*	*	*	*	*	*	*	*	*	*	*	*	*	*	*	*	*	*	*	*	*	*	*	*
!	!	!	!	!	!	!	!	!	!	!	!	!	!	!LO:DY:a	!	!	!	!	!	!LO:HP:a	!	!	!	!	!	!	!	!	!	!	!	!	!
2.ryy	8G#\L	<	2.G#\	-i-	.	2.e\	-i-	.	2.e/	.	.	(2b\	-i-	<	8e\L	.	8e/L	.	8b\L	<	2.r	.	2.G#\	.	4r	.	4r	4rAyy	.	4r	.	4r	.
.	8G#\	.	.	.	.	.	.	.	.	.	.	.	.	.	8e\	.	8e/	.	8b\	.	.	.	.	.	.	.	.	.	.	.	.	.	.
.	8G#\	.	.	.	.	.	.	.	.	.	.	.	.	.	8e\	.	8e/	.	8b\	.	.	.	.	.	2ee 2e/	<[	(4b/	2e\	.	2ee\	<[	(4bb\	.
.	8G#\	.	.	.	.	.	.	.	.	.	.	.	.	.	8e\	.	8e/	.	8b\J	.	.	.	.	.	.	.	.	.	.	.	.	.	.
.	8G#\	.	.	.	.	.	.	.	.	.	.	4b#X\)	.	[[	8e\	.	8e/	.	8b#X\L	.	.	.	.	.	.	.	4b#X/	.	.	.	.	4bb#X\	.
.	8G#\J	[[	.	.	.	.	.	.	.	.	.	.	.	.	8e\J	.	8e/J	.	8b#\J	[[	.	.	.	.	.	.	.	.	.	.	.	.	.
*	*Xtremolo	*	*	*	*	*	*	*	*	*	*	*	*	*	*Xtremolo	*	*Xtremolo	*	*Xtremolo	*	*	*	*	*	*	*	*	*	*	*	*	*	*
*	*	*	*	*	*	*	*	*	*	*	*	*	*	*	*	*	*	*	*	*	*	*	*	*	*	*	*v	*v	*	*	*	*	*
!!LO:PB:g=original
=22	=22	=22	=22	=22	=22	=22	=22	=22	=22	=22	=22	=22	=22	=22	=22	=22	=22	=22	=22	=22	=22	=22	=22	=22	=22	=22	=22	=22	=22	=22	=22	=22
!	!	!	!	!	!	!	!	!	!	!	!	!	!	!	!	!	!	!	!	!	!	!	!	!	!	!	!LO:TX:a:t=P:problem:brak zakończenia łuku	!	!	!	!LO:TX:a:t=P:problem:brak zakończenia łuku	!
2.ryy	4.A\	.	4.A\	-ny	.	4.c#\	-ny	.	4.e/	.	.	4.cc#\	-ny	.	4.c#\	.	4.e/	.	4.cc#\	.	2.r	.	4.A\	.	4.ee 4.e/	.	4.cc# 4.e/)	.	4.ee\	.	4.ccc#\)	.
.	.	.	.	.	.	.	.	.	.	.	.	.	.	.	.	.	.	.	.	>	.	.	.	.	.	.	.	.	.	.	.	.
.	8A\L	.	8A\	.	.	8c#\	.	.	8e/	.	.	8g#/	o-	.	8c#\L	.	8e/L	.	8g#/	.	.	.	8r	.	8r	.	8r	.	8r	.	8r	.
.	.	.	.	.	.	.	.	.	.	.	.	(8qb/	-gła-	.	.	.	.	.	(8qb/	.	.	.	.	.	.	.	.	.	.	.	.	.
.	8A\	.	8A\	.	.	8c#\	.	.	8f#/	.	.	8a/)	.	.	8c#\	.	8f#/	.	8a/L)	]	.	.	4r	.	4r	.	4r	.	4r	.	4r	.
.	8A\J	.	8A\	.	.	8c#\	.	.	8f#/	.	.	8f#/	-sza	.	8c#\J	.	8f#/J	.	8f#'/J	.	.	.	.	.	.	.	.	.	.	.	.	.
=23	=23	=23	=23	=23	=23	=23	=23	=23	=23	=23	=23	=23	=23	=23	=23	=23	=23	=23	=23	=23	=23	=23	=23	=23	=23	=23	=23	=23	=23	=23	=23	=23
*	*	*	*	*	*	*	*	*	*	*	*	*	*	*	*	*	*	*	*	*	*	*	*	*	*	*	*^	*	*	*	*	*
2.ryy	8B\	.	4B\	.	.	4B\	.	.	4eSSS/	.	.	4g#SsS/	na-	.	8r	.	8r	.	8r	.	2.r	.	2.B\	.	2.r	.	2.b/	2.b\	.	4eeSSS\	.	4gg#SsS\	.
.	8r	.	.	.	.	.	.	.	.	.	.	.	.	.	8B/	.	8e/	.	8g#/	.	.	.	.	.	.	.	.	.	.	.	.	.	.
.	8B\	.	4.B\	.	.	4.B\	.	.	4.f#/	.	.	4.a/	-u-	.	8r	.	8r	.	8r	.	.	.	.	.	.	.	.	.	.	4.ff#\	.	4.aa\	.
.	8r	.	.	.	.	.	.	.	.	.	.	.	.	.	8B/	.	8f#/	.	8a/	.	.	.	.	.	.	.	.	.	.	.	.	.	.
.	8B\	.	.	.	.	.	.	.	.	.	.	.	.	.	8r	.	8r	.	8r	.	.	.	.	.	.	.	.	.	.	.	.	.	.
.	8r	.	8BB/	.	.	8B\	.	.	8d#X/	.	.	8f#/	-ki	.	8B/	.	8d#X/	.	8f#/	.	.	.	.	.	.	.	.	.	.	8dd#X\	.	8ff#\	.
=24	=24	=24	=24	=24	=24	=24	=24	=24	=24	=24	=24	=24	=24	=24	=24	=24	=24	=24	=24	=24	=24	=24	=24	=24	=24	=24	=24	=24	=24	=24	=24	=24	=24
*	*	*	*	*	*	*^	*	*	*	*	*	*	*	*	*	*	*	*	*	*	*	*	*	*	*	*	*	*	*	*	*	*	*
2.ryy	4BB/	.	2.BB/	.	.	2.B/	2.A\	.	.	2.d#X/	.	.	2.f#/	świę-	.	4B/	.	8r	.	8r	.	2.r	.	2.B 2.BB\	.	2.r	.	2.b/	2.a\	.	2.dd#X\	.	2.ff#\	.
.	.	.	.	.	.	.	.	.	.	.	.	.	.	.	.	.	.	8B'/L	.	8b'\L	.	.	.	.	.	.	.	.	.	.	.	.	.	.
.	4r	.	.	.	.	.	.	.	.	.	.	.	.	.	.	4r	.	8b'/	.	8bb'\	.	.	.	.	.	.	.	.	.	.	.	.	.	.
.	.	.	.	.	.	.	.	.	.	.	.	.	.	.	.	.	.	8a'/	.	8aa'\	.	.	.	.	.	.	.	.	.	.	.	.	.	.
.	8r	.	.	.	.	.	.	.	.	.	.	.	.	.	.	8r	.	8f#'/	.	8ff#'\	.	.	.	.	.	.	.	.	.	.	.	.	.	.
.	8BB/	.	.	.	.	.	.	.	.	.	.	.	.	.	.	8a 8B\	.	8d#X'/J	.	8dd#X'\J	.	.	.	.	.	.	.	.	.	.	.	.	.	.
=25	=25	=25	=25	=25	=25	=25	=25	=25	=25	=25	=25	=25	=25	=25	=25	=25	=25	=25	=25	=25	=25	=25	=25	=25	=25	=25	=25	=25	=25	=25	=25	=25	=25	=25
*	*^	*	*	*	*	*	*	*	*	*	*	*	*	*	*	*	*	*	*	*	*	*	*	*	*	*	*	*	*	*	*	*	*	*
2.ryy	8E/L	4E\	.	4E\	.	.	4B/	4G#X\	.	.	4e/	.	.	4e/	-te	.	4g#X 4B\	.	4e/	.	8ee'\L	.	2.r	.	4B 4E\	.	4ee 4e/	.	4b/	4g#X\	.	4ee\	.	4ee\	.
.	8dn/	.	.	.	.	.	.	.	.	.	.	.	.	.	.	.	.	.	.	.	8ddn'\	.	.	.	.	.	.	.	.	.	.	.	.	.	.
.	8B/	4r	.	4r	.	.	4r	4rGGyy	.	.	4r	.	.	4r	.	.	4r	.	4r	.	8b'\	.	.	.	4r	.	4r	.	4r	4rAyy	.	4r	.	4r	.
.	8G#/	.	.	.	.	.	.	.	.	.	.	.	.	.	.	.	.	.	.	.	8g#'\	.	.	.	.	.	.	.	.	.	.	.	.	.	.
.	8F#/	4r	.	8r	.	.	8r	4rGGyy	.	.	8r	.	.	8r	.	.	4r	.	4r	.	8f#'\	.	.	.	4r	.	4r	.	4r	4rAyy	.	4r	.	4r	.
.	8E/J	.	.	8E\	.	.	8e\	.	.	.	8e/	.	.	8e/	U- 	.	.	.	.	.	8e'\J	.	.	.	.	.	.	.	.	.	.	.	.	.	.
*	*v	*v	*	*	*	*	*v	*v	*	*	*	*	*	*	*	*	*	*	*	*	*	*	*	*	*	*	*	*	*v	*v	*	*	*	*	*
=26	=26	=26	=26	=26	=26	=26	=26	=26	=26	=26	=26	=26	=26	=26	=26	=26	=26	=26	=26	=26	=26	=26	=26	=26	=26	=26	=26	=26	=26	=26	=26	=26
!	!	!	!	!	!	!	!	!	!	!	!	!	!	!	!LO:TX:t=P:problem:t. 26-35 niewidoczne w partyturze	!	!LO:TX:t=P:problem:t. 26-35 niewidoczne w partyturze	!	!LO:TX:t=P:problem:t. 26-35 niewidoczne w partyturze	!	!LO:TX:t=P:problem:t. 26-35 niewidoczne w partyturze	!	!LO:TX:t=P:problem:t. 26-35 niewidoczne w partyturze	!	!LO:TX:t=P:problem:t. 26-35 niewidoczne w partyturze	!	!LO:TX:t=P:problem:t. 26-35 niewidoczne w partyturze	!	!LO:TX:t=P:problem:t. 26-35 niewidoczne w partyturze	!	!LO:TX:t=P:problem:t. 26-35 niewidoczne w partyturze	!
2.ryy	4AA/	.	4AA/	.	.	(4e\	.	.	[2a/	.	.	(4cc#\	-znay-	.	(4e\yy	.	[2a/yy	.	(4cc#\yy	.	2.ryy	.	2.ryy	.	2.ryy	.	2.ryy	.	2.ryy	.	2.ryy	.
.	4.F#\	.	4.F#\	.	.	4.c#\)	.	.	.	.	.	4.a\)	.	.	4.c#\)yy	.	.	.	4.a\)yy	.	.	.	.	.	.	.	.	.	.	.	.	.
.	.	.	.	.	.	.	.	.	8a/]	.	.	.	.	.	.	.	8a/L]yy	.	.	.	.	.	.	.	.	.	.	.	.	.	.	.
.	8E\	.	8E\	.	.	8e\	.	.	8g#/	.	.	8b\	-cie	.	8e\yy	.	8g#/J|yy	.	8b\|yy	.	.	.	.	.	.	.	.	.	.	.	.	.
=27	=27	=27	=27	=27	=27	=27	=27	=27	=27	=27	=27	=27	=27	=27	=27	=27	=27	=27	=27	=27	=27	=27	=27	=27	=27	=27	=27	=27	=27	=27	=27	=27
2.ryy	4AA/	.	4AA/	.	.	4e\	.	.	4a/	.	.	4cc#\	pra-	.	4e\yy	.	[4a/yy	.	(4cc#\yy	.	2.ryy	.	2.ryy	.	2.ryy	.	2.ryy	.	2.ryy	.	2.ryy	.
.	4.F#\	.	4.F#\	.	.	4.c#\	.	.	4.a/	.	.	4.a\	-wdę	.	4.c#\yy	.	4.a/]yy	.	4.a\)yy	.	.	.	.	.	.	.	.	.	.	.	.	.
.	8E\	.	8E\	.	.	8e\	.	.	8g#/	.	.	8b\	wtem	.	8e\yy	.	8g#/|yy	.	8b\|yy	.	.	.	.	.	.	.	.	.	.	.	.	.
!!LO:PB:g=original
=28	=28	=28	=28	=28	=28	=28	=28	=28	=28	=28	=28	=28	=28	=28	=28	=28	=28	=28	=28	=28	=28	=28	=28	=28	=28	=28	=28	=28	=28	=28	=28	=28
*	*	*	*	*	*	*	*	*	*	*	*	*	*	*	*	*	*	*	*	*	*	*	*	*	*	*	*^	*	*	*	*	*
!	!LO:TX:t=P:problem:t. 28-35 niewidoczne w partyturze	!	!	!	!	!	!	!	!	!	!	!	!	!	!	!	!	!	!	!	!	!	!	!	!	!	!	!	!LO:DY:a:rj	!	!	!	!
2.ryy	2AA/yy	.	(2AA/	.	.	2.e\	.	.	2.a/	.	.	(2cc#\	sło-	.	[2.e\	.	2.a/	.	(2cc#\yy	.	2.ryy	.	(2A\yy	mf	2.ryy	.	(2cc#/yy	2.a\yy	mf	2.ryy	.	2.ryy	.
.	4C#/yy	.	4C#/)	.	.	.	.	.	.	.	.	4ee\)	.	.	.	.	.	.	4ee\)yy	.	.	.	4c#\yy	.	.	.	4ee/)yy	.	.	.	.	.	.
=29	=29	=29	=29	=29	=29	=29	=29	=29	=29	=29	=29	=29	=29	=29	=29	=29	=29	=29	=29	=29	=29	=29	=29	=29	=29	=29	=29	=29	=29	=29	=29	=29	=29
2.ryy	2E\yy	.	2E\	.	.	2e\	.	.	2g#/	.	.	2b\	-wie	.	2e\]yy	.	2g#/yy	.	2b\yy	.	2.ryy	.	2e\)yy	.	2.ryy	.	2b/yy	2g#\yy	.	4ryy	.	4ryy	.
.	.	.	.	.	.	.	.	.	.	.	.	.	.	.	.	.	.	.	.	.	.	.	.	.	.	.	.	.	.	4ryy	.	4ryy	.
.	4E#X\yy	.	4E#X^\	.	.	4d\	.	.	4g#/	.	.	4b^\	My	.	4d^<\yy	.	4g#^/yy	.	4b^<\yy	.	.	.	4e#X^<\yy	.	.	.	4dd/yy	4ryy	.	4gg#^<\yy	.	4bb^<\yy	.
=30	=30	=30	=30	=30	=30	=30	=30	=30	=30	=30	=30	=30	=30	=30	=30	=30	=30	=30	=30	=30	=30	=30	=30	=30	=30	=30	=30	=30	=30	=30	=30	=30	=30
!	!	!	!	!	!	!	!	!	!	!	!	!	!	!	!	!	!	!	!	!	!	!	!	!	!	!	!	!	!	!	!LO:DY:rj	!	!LO:DY:rj
2.ryy	(4F#\yy	.	(4F#\	.	.	(4c#\	.	.	2f#/	.	.	2a\	wszy-	.	8c#\Lyy	.	8f#/Lyy	p	8a/Lyy	p	2.ryy	.	(4f#\yy	p	2.ryy	.	(4cc#/yy	2.ryy	.	2.ff#\yy	p	(2aa\yy	p
.	.	.	.	.	.	.	.	.	.	.	.	.	.	.	8c#\Jyy	.	8f#/Jyy	.	8a/Jyy	.	.	.	.	.	.	.	.	.	.	.	.	.	.
.	4E\)yy	.	4E\)	.	.	4cn\)	.	.	.	.	.	.	.	.	8ryy	.	8ryy	.	8ryy	.	.	.	4e\yy	.	.	.	4ccn/yy	.	.	.	.	.	.
.	.	.	.	.	.	.	.	.	.	.	.	.	.	.	8cn\yy	.	8f#/yy	.	8a/yy	.	.	.	.	.	.	.	.	.	.	.	.	.	.
.	4D#X\yy	.	4D#X\	.	.	4B\	.	.	4f#/	.	.	4b\	-scy	.	8ryy	.	8ryy	.	8ryy	.	.	.	4d#X\)yy	.	.	.	4b/)yy	.	.	.	.	4bb\)yy	.
.	.	.	.	.	.	.	.	.	.	.	.	.	.	.	8B\yy	.	8f#/yy	.	8b/yy	.	.	.	.	.	.	.	.	.	.	.	.	.	.
=31	=31	=31	=31	=31	=31	=31	=31	=31	=31	=31	=31	=31	=31	=31	=31	=31	=31	=31	=31	=31	=31	=31	=31	=31	=31	=31	=31	=31	=31	=31	=31	=31	=31
*	*^	*	*	*	*	*	*	*	*	*	*	*	*	*	*	*	*	*	*	*	*	*	*^	*	*	*	*	*	*	*	*	*	*
2.ryy	(4.e/yy	2E\yy	.	2E\	.	.	4.e\	.	.	(4.e/	.	.	(4.g#/	bra-	.	8ryy	.	8ryy	.	8ryy	.	4.g#Xyy 4.e/yy	.	(4.e/yy	2E\yy	.	4ryy	.	(4.ee/yy	2.reyy	.	(4.ee\yy	.	(4.gg#\yy	.
.	.	.	.	.	.	.	.	.	.	.	.	.	.	.	.	8e'\Lyy	.	8e'/Lyy	.	8g#'/Lyy	.	.	.	.	.	.	.	.	.	.	.	.	.	.	.
.	.	.	.	.	.	.	.	.	.	.	.	.	.	.	<	(8e\yy	.	(8e/yy	.	(8g#/yy	.	.	.	.	.	.	4ryy	.	.	.	.	.	.	.	.
!	!	!	!LO:HP:b	!	!	!	!	!	!	!	!	!	!	!	!	!	!	!	!	!	!	!	!	!	!	!	!	!	!	!	!	!	!	!	!
.	8d#X/)yy	.	<	.	.	.	8d#X\	.	.	8f#/)	.	.	8a/)	.	.	8d#X\J)yy	.	8f#/J)yy	<	8a/J)yy	<	8ayy 8f#X/yy	.	8d#X/)yy	.	.	.	.	8dd#X/)yy	.	.	8ff#\)yy	<	8aa\)yy	<
.	8.dn/Lyy	8.E\Lyy	.	8.E\	.	.	8.dn\	.	.	8.g#/	.	.	8.b\	-cia	.	8.dn\L|yy	.	8.g#/Lyy	.	8.b/L|yy	.	8.bLyy 8.g#X/yy	.	8.dn/Lyy	8.E\Lyy	.	8.eeLyy 8.e/yy	<	8.ddn/L|yy	.	.	8.gg#\L|yy	.	8.bb\L|yy	.
.	16c#/Jkyy	16E\Jkyy	[	16E\	.	.	16c#\	.	.	16a/	.	.	16cc#\	ies-	[[	16c#\Jk|yy	.	16a/Jkyy	[[	16cc#/Jk|yy	[[	16cc#Jkyy 16a/yy	.	16c#/Jkyy	16E\Jkyy	.	16eeJkyy 16e/yy	[[	16cc#/Jk|yy	.	.	16aa\Jk|yy	[[	16ccc#\Jk|yy	[
=32	=32	=32	=32	=32	=32	=32	=32	=32	=32	=32	=32	=32	=32	=32	=32	=32	=32	=32	=32	=32	=32	=32	=32	=32	=32	=32	=32	=32	=32	=32	=32	=32	=32	=32	=32
!	!	!	!LO:DY:b	!	!	!	!	!	!	!	!	!	!	!	!	!	!	!	!	!	!LO:DY:rj	!	!	!	!	!	!	!LO:DY:rj	!	!	!	!	!	!	!
2.ryy	2G#/yy	4E\yy	f	2.E\	.	.	2G#/	.	.	(2b/	.	.	(2dd\	-teś-	f	(2G#/yy	.	[4b/yy	f	[4dd\yy	f	2ddyy 2b\yy	.	2G#/yy	2.E\yy	.	2.eeyy 2.e/yy	f >	2g#/yy	2.reyy	.	(2bb\yy	f >	(2ddd\yy	f >|
.	.	4E\yy	.	.	.	.	.	.	.	.	.	.	.	.	.	.	.	8.b/L]yy	.	8.dd\L]yy	.	.	.	.	.	.	.	.	.	.	.	.	.	.	.
.	.	.	.	.	.	.	.	.	.	.	.	.	.	.	.	.	.	16e/Jkyy	.	16ee\Jkyy	.	.	.	.	.	.	.	.	.	.	.	.	.	.	.
.	8.A/Lyy	4E\yy	.	.	.	.	(8A\L	.	.	4a/)	.	.	4cc#\)	.	.	8.A/L)yy	.	8.a/Lyy	.	8.cc#\Lyy	.	4cc#Xyy 4a\yy	.	8A/Lyy	.	.	.	]	8a/Lyy	.	.	4aa\)yy	]]	4ccc#\)yy	]]
.	.	.	.	.	.	.	8c#\J)	.	.	.	.	.	.	.	.	.	.	.	.	.	.	.	.	8c#/Jyy	.	.	.	.	8cc#/Jyy	.	.	.	.	.	.
.	16c#/Jkyy	.	.	.	.	.	.	.	.	.	.	.	.	.	.	16c#/Jkyy	.	16e/Jkyy	.	16ee\Jkyy	.	.	.	.	.	.	.	.	.	.	.	.	.	.	.
=33	=33	=33	=33	=33	=33	=33	=33	=33	=33	=33	=33	=33	=33	=33	=33	=33	=33	=33	=33	=33	=33	=33	=33	=33	=33	=33	=33	=33	=33	=33	=33	=33	=33	=33	=33
2.ryy	2B/yy	2E\yy	.	2E\	.	.	2e\	.	.	2g#/	.	.	2b\	-my	.	2e\yy	.	2g#/yy	.	2b\yy	.	2byy 2g#X/yy	.	2B/yy	2E\yy	.	2eeyy 2e/yy	.	2ee/yy	2.reyy	.	2gg#\yy	.	2bb\yy	.
.	4rByy	4rEyy	.	4r	.	.	4r	.	.	4g#/	.	.	4b\	My	.	4ryy	.	(4g#/yy	.	(4b\yy	.	4ryy	.	4ryy	4rCCyy	.	4ryy	.	4ryy	.	.	4ryy	.	4ryy	.
*	*	*	*	*	*	*	*	*	*	*	*	*	*	*	*	*	*	*	*	*	*	*	*	*v	*v	*	*	*	*v	*v	*	*	*	*	*
=34	=34	=34	=34	=34	=34	=34	=34	=34	=34	=34	=34	=34	=34	=34	=34	=34	=34	=34	=34	=34	=34	=34	=34	=34	=34	=34	=34	=34	=34	=34	=34	=34	=34
*	*	*	*	*	*	*	*	*	*	*	*	*	*	*	*	*	*	*tremolo	*	*tremolo	*	*	*	*	*	*	*	*	*	*	*	*	*
!	!	!	!	!	!	!	!	!	!	!	!	!	!	!	!	!	!	!LO:TX:b:t=......	!	!LO:TX:a:t=......	!	!	!	!	!	!	!	!	!	!	!	!	!
2.ryy	4ryy	2.rGGyy	.	2.r	.	.	4r	.	.	2a/	.	.	2cc#\	wszy-	.	4ryy	.	8a/L)yy	.	(8cc#'\L)yy	.	2.ryy	.	2.ryy	.	2.ryy	.	2.ryy	.	2.ryy	.	2.ryy	.
.	.	.	.	.	.	.	.	.	.	.	.	.	.	.	.	.	.	(8a'/yy	.	8cc#'\yy	.	.	.	.	.	.	.	.	.	.	.	.	.
.	4ryy	.	.	.	.	.	4r	.	.	.	.	.	.	.	.	4ryy	.	8a'/yy	.	8cc#'\yy	.	.	.	.	.	.	.	.	.	.	.	.	.
.	.	.	.	.	.	.	.	.	.	.	.	.	.	.	.	.	.	8a'/yy	.	8cc#'\y	.	.	.	.	.	.	.	.	.	.	.	.	.
.	[4A/yy	.	.	.	.	.	[4A\	Je-	.	4a/	.	.	4cc#\	-scy	.	[4A/yy	.	8a'/yy	.	8cc#'\yy	.	.	.	.	.	.	.	.	.	.	.	.	.
.	.	.	.	.	.	.	.	.	.	.	.	.	.	.	.	.	.	8a'/J)yy	.	8cc#'\J)yy	.	.	.	.	.	.	.	.	.	.	.	.	.
!!LO:PB:g=original
=35	=35	=35	=35	=35	=35	=35	=35	=35	=35	=35	=35	=35	=35	=35	=35	=35	=35	=35	=35	=35	=35	=35	=35	=35	=35	=35	=35	=35	=35	=35	=35	=35	=35
!	!	!	!	!	!	!	!	!	!	!	!	!	!	!	!	!	!	!LO:TX:b:t=......	!	!LO:TX:a:t=......	!	!	!	!	!	!	!	!	!	!	!	!	!
2.ryy	4A/]yy	4rGGyy	.	4r	.	.	4A\]	.	.	4a/	.	.	4cc#\	Je-	.	4A/]yy	.	(8a'/Lyy	.	(8cc#'\Lyy	.	2.ryy	.	4ryy	.	2.ryy	.	2.ryy	.	2.ryy	.	2.ryy	.
.	.	.	.	.	.	.	.	.	.	.	.	.	.	.	.	.	.	8a'/yy	.	8cc#'\yy	.	.	.	.	.	.	.	.	.	.	.	.	.
.	4f#/yy	4rGGyy	.	4r	.	.	4f#\	-go	.	4a/	.	.	4cc#\	-go	.	4f#\yy	.	8a'/yy	.	8cc#'\yy	.	.	.	4ryy	.	.	.	.	.	.	.	.	.
.	.	.	.	.	.	.	.	.	.	.	.	.	.	.	.	.	.	8a'/yy	.	8cc#'\yy	.	.	.	.	.	.	.	.	.	.	.	.	.
.	4e/yy	4AA\yy	.	4AA/	Sy-	.	4e\	Sy-	.	4a/	.	.	4cc#\	Sy-	.	4e\yy	.	8a'/yy	.	8cc#'\yy	.	.	.	4AA/yy	.	.	.	.	.	.	.	.	.
.	.	.	.	.	.	.	.	.	.	.	.	.	.	.	.	.	.	8a'/J)yy	.	8cc#'\J)yy	.	.	.	.	.	.	.	.	.	.	.	.	.
!!LO:PB:g=original
=36	=36	=36	=36	=36	=36	=36	=36	=36	=36	=36	=36	=36	=36	=36	=36	=36	=36	=36	=36	=36	=36	=36	=36	=36	=36	=36	=36	=36	=36	=36	=36	=36	=36
*	*	*	*	*	*	*	*	*	*	*	*	*	*	*	*	*tremolo	*	*	*	*	*	*	*	*	*	*	*	*	*	*	*	*	*
2.ryy	2d#X 2BB/	(>2BB\	.	(2BB/	-no-	.	(2d#X\	-no-	.	2.f#/	.	.	(2b/	-no-	.	8d#X\L	.	8f#/L	.	8b\L	.	2.r	.	(2BB/	.	2.r	.	2.r	.	2.r	.	2.r	.
.	.	.	.	.	.	.	.	.	.	.	.	.	.	.	.	8d#\	.	8f#/	.	8b\	.	.	.	.	.	.	.	.	.	.	.	.	.
.	.	.	.	.	.	.	.	.	.	.	.	.	.	.	.	8d#\	.	8f#/	.	8b\	.	.	.	.	.	.	.	.	.	.	.	.	.
.	.	.	.	.	.	.	.	.	.	.	.	.	.	.	.	8d#\J	.	8f#/	.	8b\J	.	.	.	.	.	.	.	.	.	.	.	.	.
.	4D#X/	4D#\)	.	4D#X/)	.	.	4B\)	.	.	.	.	.	4a/)	.	.	8B/L	.	8f#/	.	8a/L	.	.	.	4D#X/)	.	.	.	.	.	.	.	.	.
.	.	.	.	.	.	.	.	.	.	.	.	.	.	.	.	8B/J	.	8f#/J	.	8a/J	.	.	.	.	.	.	.	.	.	.	.	.	.
*	*v	*v	*	*	*	*	*	*	*	*	*	*	*	*	*	*	*	*	*	*	*	*	*	*	*	*	*	*	*	*	*	*	*
=37	=37	=37	=37	=37	=37	=37	=37	=37	=37	=37	=37	=37	=37	=37	=37	=37	=37	=37	=37	=37	=37	=37	=37	=37	=37	=37	=37	=37	=37	=37	=37	=37
*	*	*	*	*	*	*	*	*	*	*	*	*	*	*	*	*	*	*	*	*	*	*	*	*	*	*	*^	*	*	*	*	*
*	*tremolo	*	*	*	*	*	*	*	*	*	*	*	*	*	*	*	*	*	*	*	*	*	*	*	*	*	*	*	*	*	*	*	*
!	!	!	!	!	!	!	!	!	!	!	!LO:HP:a	!	!	!LO:DY:a	!	!LO:HP:a	!	!LO:HP:a	!	!	!	!	!	!	!	!	!	!	!	!	!	!	!
2.ryy	8E\L	.	2E\	-wie	.	2B\	-wie	.	2e/	.	<	2g#/	-wie	<	8B/L	<	8e/L	<	8g#/L	.	2.r	.	2E\	.	4r	.	4r	4rAyy	.	4r	.	4r	.
.	8E\	.	.	.	.	.	.	.	.	.	.	.	.	.	8B/	.	8e/	.	8g#/	.	.	.	.	.	.	.	.	.	.	.	.	.	.
!	!	!	!	!	!	!	!	!	!	!	!	!	!	!	!	!	!	!	!	!LO:HP:a	!	!	!	!	!	!	!	!	!	!	!	!	!
.	8E\	.	.	.	.	.	.	.	.	.	.	.	.	.	8B/	.	8e/	.	8g#/	<	.	.	.	.	4r	.	4r	4rAyy	.	4r	.	4r	.
.	8E\J	.	.	.	.	.	.	.	.	.	.	.	.	.	8B/	.	8e/J	.	8g#/J	.	.	.	.	.	.	.	.	.	.	.	.	.	.
.	8Dn\L	.	4Dn\	.	.	4e\	.	.	4g#/	.	[[	((4b/	Mi-	[	8B/	.	8g#/L	.	8b/L	.	.	.	4Dn\	.	4ee 4e/	.	4b/	4g#\	.	4gg#\	.	4bb\	<[
.	8D\J	.	.	.	.	.	.	.	.	.	.	.	.	.	8B/J	[[	8g#/J	[[	8b/J	[[	.	.	.	.	.	.	.	.	.	.	.	.	.
.	.	.	.	.	.	.	.	.	.	.	.	16qqee/	.	.	.	.	.	.	.	.	.	.	.	.	.	.	.	.	.	.	.	.	.
=38	=38	=38	=38	=38	=38	=38	=38	=38	=38	=38	=38	=38	=38	=38	=38	=38	=38	=38	=38	=38	=38	=38	=38	=38	=38	=38	=38	=38	=38	=38	=38	=38	=38
*	*	*	*	*	*	*	*	*	*	*	*	*	*	*	*	*	*	*	*	*	*^	*	*	*	*^	*	*	*	*	*	*	*	*
!	!	!	!	!	!LO:DY:rj	!	!	!LO:DY:rj	!	!	!LO:DY:rj	!	!	!LO:DY:rj	!	!LO:DY:a:rj	!	!LO:DY:a:rj	!	!LO:DY:a:rj	!	!	!	!	!	!	!	!	!	!	!	!	!LO:DY:rj	!	!LO:DY:rj
2.ryy	8C#/L	.	2C#\	.	f	2e\	.	f	2a/	.	f	2ee\))	-ło-	f	8c#/L	f	8a/L	f	8ee\L	f	2ee/	2a\	.	2C#/	.	2ee 2e/	4rAyy	.	2ee/	2a\	.	2aa\	f	2eee\	f
.	8C#/	.	.	.	.	.	.	.	.	.	.	.	.	.	8c#/	.	8a/	.	8ee\	.	.	.	.	.	.	.	.	.	.	.	.	.	.	.	.
.	8C#/	.	.	.	.	.	.	.	.	.	.	.	.	.	8c#/	.	8a/	.	8ee\	.	.	.	.	.	.	.	4rAyy	.	.	.	.	.	.	.	.
.	8C#/	.	.	.	.	.	.	.	.	.	.	.	.	.	8c#/	.	8a/J	.	8ee\J	.	.	.	.	.	.	.	.	.	.	.	.	.	.	.	.
.	8C#/	.	4C#\	.	.	4e 4A\	.	.	4e/	.	.	4a/	-ścią	.	8c#/	.	8e/L	.	8a/L	.	4r	4rcyy	.	4C#/	.	4ee/	4ee\	.	4ee/	4a\	.	4ee\	.	4aa\	.
.	8C#/J	.	.	.	.	.	.	.	.	.	.	.	.	.	8c#/J	.	8e/J	.	8a/J	.	.	.	.	.	.	.	.	.	.	.	.	.	.	.	.
*	*	*	*	*	*	*	*	*	*	*	*	*	*	*	*	*	*	*	*	*	*v	*v	*	*	*	*	*	*	*	*	*	*	*	*	*
=39	=39	=39	=39	=39	=39	=39	=39	=39	=39	=39	=39	=39	=39	=39	=39	=39	=39	=39	=39	=39	=39	=39	=39	=39	=39	=39	=39	=39	=39	=39	=39	=39	=39	=39
2.ryy	8D'/L	.	(4.D/	.	.	(8A\L	.	.	2f#/	.	.	(4.f#/	chwa-	.	(8d/L	.	8f#/L	.	8f#/L	.	2.r	.	(4.D/	.	4.dd/	4.dd\	.	[2ff#/	8a\L	.	4.dd\	.	(4.ff#\	.
.	8D'/	.	.	.	.	8A#X\J)	.	.	.	.	.	.	.	.	8A#X/J)	.	8f#/	.	8f#/	.	.	.	.	.	.	.	.	.	8a#X\J	.	.	.	.	.
.	8D'/	.	.	.	.	4B\	.	.	.	.	.	.	.	.	4B/	.	8f#/	.	8f#/	.	.	.	.	.	.	.	.	.	4b\	.	.	.	.	.
.	(8BB/J	.	8BB/)	.	.	.	.	.	.	.	.	8dd\)	.	.	.	.	8f#/J	.	(8dd/J	.	.	.	8BB/)	.	8r	8rcyy	.	.	.	.	8r	.	(8ddd\L)	.
.	8.C#/L)	.	8.C#/	.	.	8.A#X\	.	.	8.f#/	.	.	8.cc#\	-łę	.	8.A#X\L	.	8.f#/L	.	8.cc#/L)	.	.	.	8.C#/L	.	4r	4rAyy	.	8.ff#/L]	8.a#X\L	.	4r	.	8.ccc#\)	.
.	16D/Jk|	.	16D/	.	.	16B\	.	.	16f#/	.	.	16b\	Mu	.	16B\Jk	.	16f#/Jk	.	16b/Jk	.	.	.	16D/Jk	.	.	.	.	16ff#/Jk	16b\Jk	.	.	.	16bb\Jk|	.
=40	=40	=40	=40	=40	=40	=40	=40	=40	=40	=40	=40	=40	=40	=40	=40	=40	=40	=40	=40	=40	=40	=40	=40	=40	=40	=40	=40	=40	=40	=40	=40	=40	=40	=40
*	*	*	*	*	*	*	*	*	*	*	*	*	*	*	*	*	*	*	*	*	*^	*	*	*	*	*	*	*	*	*	*	*	*	*
2.ryy	8E\L	.	2.E\	.	.	(2c#\	.	.	(>2a/	.	.	(2ee\	wznie-	.	8e\L	.	8aL 8c#/	.	8ee\L	.	2a/	2e\	.	2E\	.	2ee/	2ee\	.	2ee/	2cc#\	.	2aa\	.	2eee\	.
.	8E\	.	.	.	.	.	.	.	.	.	.	.	.	.	8e\	.	8a 8c#/	.	8ee\	.	.	.	.	.	.	.	.	.	.	.	.	.	.	.	.
.	8E\	.	.	.	.	.	.	.	.	.	.	.	.	.	8e\	.	8a 8c#/	.	8ee\	.	.	.	.	.	.	.	.	.	.	.	.	.	.	.	.
.	8E\	.	.	.	.	.	.	.	.	.	.	.	.	.	8e\J	.	8aJ 8c#/	.	8ee\J	.	.	.	.	.	.	.	.	.	.	.	.	.	.	.	.
.	8E\	.	.	.	.	4d 4B\)	.	.	4e/)	.	.	4g#/)	.	.	8eL 8B\	.	8eL 8d/	.	8g#/L	.	4b/	4d\	.	4E\	.	4ee/	4ee\	.	4dd 4b\	4rAyy	.	4gg#\	.	4gg#\	.
.	8E\J	.	.	.	.	.	.	.	.	.	.	.	.	.	8eJ 8B\	.	8eJ 8d/	.	8g#/J	.	.	.	.	.	.	.	.	.	.	.	.	.	.	.	.
*	*	*	*	*	*	*	*	*	*	*	*	*	*	*	*Xtremolo	*	*	*	*	*	*	*	*	*	*	*	*	*	*	*	*	*	*	*	*
*	*	*	*	*	*	*	*	*	*	*	*	*	*	*	*	*	*	*	*	*	*v	*v	*	*	*	*	*	*	*	*	*	*	*	*	*
!!LO:PB:g=original
=41	=41	=41	=41	=41	=41	=41	=41	=41	=41	=41	=41	=41	=41	=41	=41	=41	=41	=41	=41	=41	=41	=41	=41	=41	=41	=41	=41	=41	=41	=41	=41	=41	=41	=41
2.ryy	4.AA/	.	4AA/	śmy	.	4c# 4A\	.	.	4e/	.	.	4a/	-śmy.	.	4.e 4.A\	.	4.e 4.c#/	.	4.a/	.	4.a 4.c#X/	.	4.A\	.	4.ee/	4.ee\	.	4.cc#/	4.a\	.	4.cc#\	.	4.aa\	.
.	.	.	4r	.	.	4r	.	.	4r	.	.	4r	.	.	.	.	.	.	.	.	.	.	.	.	.	.	.	.	.	.	.	p	.	p
*	*	*	*	*	*	*	*	*	*	*	*	*	*	*	*	*	*	*	*	*	*	*	*clefC4	*	*	*	*	*	*	*	*	*	*	*
.	8r	.	.	.	.	.	.	.	.	.	.	.	.	.	8r	.	8r	.	8r	.	8r	.	[4.a [4.A\	<	8r	8rAyy	.	(8cc#L 8a\	8rAyy	.	(8cc#\L	.	(8aa\L	.
.	4r	.	4r	.	.	4r	.	.	4r	.	.	4r	.	.	4r	.	4r	.	4r	.	4r	.	.	.	4r	4rAyy	.	8dd 8b\	4rAyy	.	8dd\	.	8bb\	.
.	.	.	.	.	.	.	.	.	.	.	.	.	.	.	.	.	.	.	.	.	.	.	.	.	.	.	.	8eeJ 8cc#\	.	.	8ee\J	.	8ccc#\J	.
*	*	*	*	*	*	*	*	*	*	*	*	*	*	*	*	*	*	*	*	*	*	*	*	*	*v	*v	*	*	*	*	*	*	*	*
=42	=42	=42	=42	=42	=42	=42	=42	=42	=42	=42	=42	=42	=42	=42	=42	=42	=42	=42	=42	=42	=42	=42	=42	=42	=42	=42	=42	=42	=42	=42	=42	=42	=42
2.ryy	2.r	.	2.r	.	.	2.r	.	.	2.r	.	.	2.r	.	.	2.r	.	2.r	.	2.r	.	2.r	.	2.a] 2.A\]	.	2.r	.	2.ff#/	2dd\)	.	2ff#\	<	2ddd\)	<
.	.	.	.	.	.	.	.	.	.	.	.	.	.	.	.	.	.	.	.	.	.	.	.	.	.	.	.	4dd#X\	.	4cccn\)	[	4fff#\	[
.	.	.	.	.	.	.	.	.	.	.	.	.	.	.	.	.	.	.	.	.	.	.	.	[	.	.	.	.	.	.	>	.	>
=43	=43	=43	=43	=43	=43	=43	=43	=43	=43	=43	=43	=43	=43	=43	=43	=43	=43	=43	=43	=43	=43	=43	=43	=43	=43	=43	=43	=43	=43	=43	=43	=43	=43
2.ryy	4r	.	2.r	.	.	2.r	.	.	2.r	.	.	2.r	.	.	4r	.	4r	.	4r	.	4r	.	4.a 4.A\	>	2.r	.	4.ee/	4.ee\	.	4.ccc#X\	]	4.eee\	]
.	8r	.	.	.	.	.	.	.	.	.	.	.	.	.	8r	.	8r	.	8r	.	8r	.	.	]	.	.	.	.	.	.	.	.	.
!	!	!LO:DY:b:rj	!	!	!	!	!	!	!	!	!	!	!	!	!	!LO:DY:a:rj	!	!	!	!LO:DY:rj	!	!	!	!LO:DY:rj	!	!	!	!	!	!	!	!	!
.	8A\L	f	.	.	.	.	.	.	.	.	.	.	.	.	8e\L	f	(8cc#\L	.	(8ee\L	f	8eeL 8cc#X\	.	8aL 8A\	f	.	.	8ee/L	8cc#\L	.	8ccc#\L	f	(8eee\L	f
.	8B\	.	.	.	.	.	.	.	.	.	.	.	.	.	8f#\	.	8b\	.	8dd\	.	8dd 8b\	.	8f# 8B\	.	.	.	8dd/	8b\	.	8bb\	.	8ddd\	.
.	8F#\J	.	.	.	.	.	.	.	.	.	.	.	.	.	8f#\J	.	8a\J)	.	8cc#\J)	.	8cc#XJ 8a\	.	8f#J 8F#\	.	.	.	8cc#/J	8a\J	.	8aa\J	.	8ccc#\J	.
=44	=44	=44	=44	=44	=44	=44	=44	=44	=44	=44	=44	=44	=44	=44	=44	=44	=44	=44	=44	=44	=44	=44	=44	=44	=44	=44	=44	=44	=44	=44	=44	=44	=44
*	*	*	*	*	*	*	*	*	*	*	*	*	*	*	*	*	*	*	*	*	*^	*	*^	*	*^	*	*	*	*	*	*	*	*
*	*	*	*	*	*	*	*	*	*	*	*	*	*	*	*tremolo	*	*	*	*	*	*	*	*	*	*	*	*	*	*	*	*	*	*	*	*	*
2.ryy	8D\L	.	2.r	.	.	2.r	.	.	2.r	.	.	2.r	.	.	8d\L	.	8f#/L	.	(8b\L	.	2b/	2f#X\	.	2f#/	2D\	.	2dd/	2dd\	.	2.b/	2f#\	.	(2ff#\	.	2bb\)	.
.	8D\	.	.	.	.	.	.	.	.	.	.	.	.	.	8d\	.	8f#/	.	8b\	.	.	.	.	.	.	.	.	.	.	.	.	.	.	.	.	.
.	8D\	.	.	.	.	.	.	.	.	.	.	.	.	.	8d\	.	8f#/	.	8b\	.	.	.	.	.	.	.	.	.	.	.	.	.	.	.	.	.
.	8D\J	.	.	.	.	.	.	.	.	.	.	.	.	.	8d\J	.	8f#/J	.	8b\J	.	.	.	.	.	.	.	.	.	.	.	.	.	.	.	.	.
.	8E\L	.	.	.	.	.	.	.	.	.	.	.	.	.	8e\L	.	8g#/L	.	8ee\L	.	4ee/	4g#\	.	4e 4E/	4rEEyy	.	4ee/	4ee\	.	.	4g#\	.	4gg#\)	.	4eee\	.
.	8E\J	.	.	.	.	.	.	.	.	.	.	.	.	.	8e\J	.	8g#/J	.	8ee\J)	.	.	.	.	.	.	.	.	.	.	.	.	.	.	.	.	.
*	*	*	*	*	*	*	*	*	*	*	*	*	*	*	*Xtremolo	*	*	*	*	*	*	*	*	*	*	*	*	*	*	*	*	*	*	*	*	*
*	*	*	*	*	*	*	*	*	*	*	*	*	*	*	*	*	*	*	*	*	*	*	*	*v	*v	*	*	*	*	*	*	*	*	*	*	*
=45	=45	=45	=45	=45	=45	=45	=45	=45	=45	=45	=45	=45	=45	=45	=45	=45	=45	=45	=45	=45	=45	=45	=45	=45	=45	=45	=45	=45	=45	=45	=45	=45	=45	=45	=45
!	!	!	!	!	!	!	!	!	!	!	!	!	!	!	!	!	!	!	!	!	!	!	!	!	!	!	!	!	!	!	!	!	!	!LO:N:vis=2.	!
2.ryy	4.A\	.	2.r	.	.	2.r	.	.	2.r	.	.	2.r	.	.	4.e 4.A\	.	4.a/	.	4.cc#\	.	4.cc#X/	4.a\	.	4.e 4.A\	.	4.ee/	4.ee\	.	4.cc#/	4.a\	.	4.aa\	.	4.ccc#\	.
!	!	!	!	!	!	!	!	!	!	!	!	!	!	!	!	!	!	!	!	!	!	!	!	!	!LO:DY:rj	!	!	!	!	!	!	!	!	!	!
.	8r	.	.	.	.	.	.	.	.	.	.	.	.	.	8r	.	8r	.	8r	.	8r	8rAyy	.	[4.a [>4.A\	p	8r	8rAyy	.	(8cc#/L	8a\L	.	(8cc#\L	p	(8aa\L	p
.	4r	.	.	.	.	.	.	.	.	.	.	.	.	.	4r	.	4r	.	4r	.	4r	4rAyy	.	.	.	4r	4rAyy	.	8dd/	8b\	.	8dd\	.	8bb\	.
.	.	.	.	.	.	.	.	.	.	.	.	.	.	.	.	.	.	.	.	.	.	.	.	.	.	.	.	.	8ee/J)	8cc#\J	.	8ee\J	.	8ccc#\J	.
*	*	*	*	*	*	*	*	*	*	*	*	*	*	*	*	*	*	*	*	*	*v	*v	*	*	*	*v	*v	*	*	*	*	*	*	*	*
=46	=46	=46	=46	=46	=46	=46	=46	=46	=46	=46	=46	=46	=46	=46	=46	=46	=46	=46	=46	=46	=46	=46	=46	=46	=46	=46	=46	=46	=46	=46	=46	=46	=46
2.ryy	2.r	.	2.r	.	.	2.r	.	.	2.r	.	.	2.r	.	.	2.r	.	2.r	.	2.r	.	2.r	.	2.a] 2.A\]	<	2.r	.	2.ff#/	2dd\	.	2ff#\)	.	(2ddd\)	<
.	.	.	.	.	.	.	.	.	.	.	.	.	.	.	.	.	.	.	.	.	.	.	.	[[	.	.	.	4dd#X\	.	4cccn\	.	4fff#\)	[
!!LO:PB:g=original
=47	=47	=47	=47	=47	=47	=47	=47	=47	=47	=47	=47	=47	=47	=47	=47	=47	=47	=47	=47	=47	=47	=47	=47	=47	=47	=47	=47	=47	=47	=47	=47	=47	=47
2.ryy	4r	.	2.r	.	.	2.r	.	.	2.r	.	.	2.r	.	.	4r	.	4r	.	4r	.	4r	.	4.a 4.A\	.	2.r	.	4.ee/	4.ee\	.	4.ccc#\	.	4.eee\	.
.	8r	.	.	.	.	.	.	.	.	.	.	.	.	.	8r	.	8r	.	8r	.	8r	.	.	f	.	.	.	.	.	.	.	.	.
!	!	!LO:DY:b:rj	!	!	!	!	!	!	!	!	!	!	!	!	!	!LO:DY:a	!	!	!	!	!	!	!	!	!	!	!	!	!	!	!	!	!
.	8A\L	f	.	.	.	.	.	.	.	.	.	.	.	.	(8e\L	f	(8cc#\L	.	(8ee\L	f	8eeL 8cc#X\	.	8aL 8A\	.	.	.	8ee/L	8cc#\L	.	(8ccc#\L	.	(8eee\L	f
.	8B\	.	.	.	.	.	.	.	.	.	.	.	.	.	8f#\)	.	8b\	.	8dd\	.	8dd 8b\	.	8f# 8B\	.	.	.	8dd/	8b\	.	8bb\	.	8ddd\	.
.	8F#\J	.	.	.	.	.	.	.	.	.	.	.	.	.	8f#\J	.	8a\J)	.	8cc#\J)	.	8cc#XJ 8a\	.	8f#J 8F#\	.	.	.	8cc#/J	8a\J	.	8aa\J)	.	8ccc#\J)	.
=48	=48	=48	=48	=48	=48	=48	=48	=48	=48	=48	=48	=48	=48	=48	=48	=48	=48	=48	=48	=48	=48	=48	=48	=48	=48	=48	=48	=48	=48	=48	=48	=48	=48
*	*	*	*	*	*	*	*	*	*	*	*	*	*	*	*	*	*	*	*	*	*^	*	*^	*	*^	*	*	*	*	*	*	*	*
*	*	*	*	*	*	*	*	*	*	*	*	*	*	*	*tremolo	*	*	*	*	*	*	*	*	*	*	*	*	*	*	*	*	*	*	*	*	*
!	!	!	!	!	!	!	!	!	!	!	!	!	!	!	!	!	!	!	!	!	!	!LO:SIC:v:s=2f#	!	!	!	!	!	!	!	!	!	!	!	!	!	!
2.ryy	8D\L	.	2.r	.	.	2.r	.	.	2.r	.	.	2.r	.	.	8d\L	.	8f#/L	.	8b\L	.	2b/	2f\	.	2f# 2D/	2D\	.	2dd/	2dd\	.	2b/	2f#\	.	2ff#\	.	2bb\	.
.	8D\	.	.	.	.	.	.	.	.	.	.	.	.	.	8d\	.	8f#/	.	8b\	.	.	.	.	.	.	.	.	.	.	.	.	.	.	.	.	.
.	8D\	.	.	.	.	.	.	.	.	.	.	.	.	.	8d\	.	8f#/	.	8b\	.	.	.	.	.	.	.	.	.	.	.	.	.	.	.	.	.
.	8D\J	.	.	.	.	.	.	.	.	.	.	.	.	.	8d\J	.	8f#/J	.	8b\J	.	.	.	.	.	.	.	.	.	.	.	.	.	.	.	.	.
.	8E\L	.	.	.	.	.	.	.	.	.	.	.	.	.	8e\L	.	8g#/L	.	8ee\L	.	4ee/	4g#X\	.	4e 4E/	4rGGyy	.	4ee/	4ee\	.	4ee/	4g#\	.	4gg#\	.	4eee\	.
.	8E\J	.	.	.	.	.	.	.	.	.	.	.	.	.	8e\J	.	8g#/J	.	8ee\J	.	.	.	.	.	.	.	.	.	.	.	.	.	.	.	.	.
*	*Xtremolo	*	*	*	*	*	*	*	*	*	*	*	*	*	*Xtremolo	*	*Xtremolo	*	*Xtremolo	*	*	*	*	*	*	*	*	*	*	*	*	*	*	*	*	*
*	*	*	*	*	*	*	*	*	*	*	*	*	*	*	*	*	*	*	*	*	*	*	*	*v	*v	*	*	*	*	*	*	*	*	*	*	*
=49	=49	=49	=49	=49	=49	=49	=49	=49	=49	=49	=49	=49	=49	=49	=49	=49	=49	=49	=49	=49	=49	=49	=49	=49	=49	=49	=49	=49	=49	=49	=49	=49	=49	=49	=49
2.ryy	2A\	.	2.r	.	.	2.r	.	.	2.r	.	.	2.r	.	.	2c#\	.	2a/	.	2a/	.	2cc#X/	2a\	.	2e 2A\	.	2ee/	2ee\	.	2cc#/	2a\	.	2aa\	.	2aa\	.
!	!	!LO:DY:b	!	!	!	!	!	!	!	!	!	!	!	!	!	!LO:DY:a:rj	!	!	!	!LO:DY:rj	!	!	!	!	!	!	!	!	!	!	!	!	!	!	!
.	4e 4F# 4AA/	p	.	.	.	.	.	.	.	.	.	.	.	.	4A/	p	4e/	.	(4cc#/	p	4r	4rFyy	.	4r	.	4r	4rAyy	.	4r	4rAyy	.	4r	.	4r	.
*	*	*	*	*	*	*	*	*	*	*	*	*	*	*	*	*	*	*	*	*	*	*	*	*	*	*v	*v	*	*	*	*	*	*	*	*
*	*	*	*	*	*	*	*	*	*	*	*	*	*	*	*	*	*	*	*	*	*v	*v	*	*	*	*	*	*v	*v	*	*	*	*	*
=50	=50	=50	=50	=50	=50	=50	=50	=50	=50	=50	=50	=50	=50	=50	=50	=50	=50	=50	=50	=50	=50	=50	=50	=50	=50	=50	=50	=50	=50	=50	=50	=50
*	*^	*	*	*	*	*	*	*	*	*	*	*	*	*	*	*	*	*	*	*	*	*	*	*	*	*	*	*	*	*	*	*
2.ryy	(2f#/	2.AA/	.	2.r	.	.	2.r	.	.	2.r	.	.	2.r	.	.	(2A/	.	(2f# 2d#X/	.	4.b/)|>	.	2.r	.	2.r	.	2.r	.	2.r	.	2.r	.	2.r	.
.	.	.	.	.	.	.	.	.	.	.	.	.	.	.	.	.	.	.	.	8f#/|>	.	.	.	.	.	.	.	.	.	.	.	.	.
.	4e/)	.	.	.	.	.	.	.	.	.	.	.	.	.	.	4B/)	.	4e 4dn/	.	4g#/|>	.	.	.	.	.	.	.	.	.	.	.	.	.
=51	=51	=51	=51	=51	=51	=51	=51	=51	=51	=51	=51	=51	=51	=51	=51	=51	=51	=51	=51	=51	=51	=51	=51	=51	=51	=51	=51	=51	=51	=51	=51	=51	=51
*	*	*	*	*	*	*	*	*	*	*	*	*	*	*	*	*	*	*	*	*	*	*	*	*^	*	*	*	*	*	*	*	*	*
2.ryy	2A/	2AA\	.	2.r	.	.	2.r	.	.	2.r	.	.	2.r	.	.	2A/	.	2e 2c#/)	.	2a/	.	2.r	.	4r	4rGGyy	.	2.r	.	4r	.	4r	.	4r	.
.	.	.	.	.	.	.	.	.	.	.	.	.	.	.	.	.	.	.	.	.	.	.	.	4r	4rGGyy	.	.	.	4r	.	4r	.	4r	.
*	*	*	*	*	*	*	*	*	*	*	*	*	*	*	*	*	*	*	*	*	*	*	*	*clefF4	*	*	*	*	*	*	*	*	*	*
.	4rA	4rAA	.	.	.	.	.	.	.	.	.	.	.	.	.	4r	.	4r	.	4r	.	.	.	4A/	4A\	.	.	.	4ee 4a\	.	4ee\	p	4ccc#\	p
*	*v	*v	*	*	*	*	*	*	*	*	*	*	*	*	*	*	*	*	*	*	*	*	*	*	*	*	*	*	*	*	*	*	*	*
=52	=52	=52	=52	=52	=52	=52	=52	=52	=52	=52	=52	=52	=52	=52	=52	=52	=52	=52	=52	=52	=52	=52	=52	=52	=52	=52	=52	=52	=52	=52	=52	=52	=52
*	*	*	*	*	*	*	*	*	*	*	*	*	*	*	*	*	*	*	*	*	*	*	*	*	*	*^	*	*^	*	*	*	*	*
2.ryy	2.r	.	2.r	.	.	2.r	.	.	2.r	.	.	2.r	.	.	2.r	.	2.r	.	2.r	.	2.r	.	[2.A/	2.A\	.	2r	2rFyy	.	2ff#/	2.b\	.	2dd#X\	.	4.bb\	.
.	.	.	.	.	.	.	.	.	.	.	.	.	.	.	.	.	.	.	.	.	.	.	.	.	.	.	.	.	.	.	.	.	.	8ff#\	.
.	.	.	.	.	.	.	.	.	.	.	.	.	.	.	.	.	.	.	.	.	.	.	.	.	.	4ee/	4ee\	.	4ee/	.	.	4ddn\	.	4gg#\	.
*	*	*	*	*	*	*	*	*	*	*	*	*	*	*	*	*	*	*	*	*	*	*	*v	*v	*	*	*	*	*	*	*	*	*	*	*
=53	=53	=53	=53	=53	=53	=53	=53	=53	=53	=53	=53	=53	=53	=53	=53	=53	=53	=53	=53	=53	=53	=53	=53	=53	=53	=53	=53	=53	=53	=53	=53	=53	=53	=53
!	!LO:TX:b:t=pizz&colon;	!	!	!	!	!	!	!	!	!	!	!	!	!	!	!	!	!	!LO:TX:b:t=pizz	!	!	!	!	!	!	!	!	!	!	!	!	!	!	!
2.ryy	4r	.	2.r	.	.	2.r	.	.	2.r	.	.	2.r	.	.	4r	.	4r	.	4r	.	[2.a [2.c#X/	.	2.A\_	.	2.ee/	2.ee\	.	[2.ee/	[2.a\	.	[2.cc#\	.	[2.aa\	.
.	4A\	.	.	.	.	.	.	.	.	.	.	.	.	.	4a\	.	4a/	.	4a/	.	.	.	.	.	.	.	.	.	.	.	.	.	.	.
.	4E\	.	.	.	.	.	.	.	.	.	.	.	.	.	4e\	.	4e/	.	4e/	.	.	.	.	.	.	.	.	.	.	.	.	.	.	.
*	*	*	*	*	*	*	*	*	*	*	*	*	*	*	*	*	*	*	*	*	*	*	*	*	*	*	*	*v	*v	*	*	*	*	*
=54	=54	=54	=54	=54	=54	=54	=54	=54	=54	=54	=54	=54	=54	=54	=54	=54	=54	=54	=54	=54	=54	=54	=54	=54	=54	=54	=54	=54	=54	=54	=54	=54	=54
!	!	!	!	!	!	!	!	!	!	!	!	!	!	!	!	!	!	!	!	!	!LO:TX:a:t=P:problem:brak początku ligatury	!	!	!	!	!	!	!LO:TX:a:t=P:problem:brak początku ligatury	!	!LO:TX:a:t=P:problem:brak początku ligatury	!	!LO:TX:a:t=P:problem:brak początku ligatury	!
2.ryy	4C#\	.	2.r	.	.	2.r	.	.	2.r	.	.	2.r	.	.	4c#\	.	4c#/	.	4c#/	.	2.a]_ 2.c#X/_	.	2.A\]	.	2.ee/	2.ee\	.	2.ee_ 2.a\_>	.	2.cc#\_	.	2.aa\_	.
.	4F#\	.	.	.	.	.	.	.	.	.	.	.	.	.	4f#\	.	4f#/	.	4f#/	.	.	.	.	.	.	.	.	.	.	.	.	.	.
.	4E\	.	.	.	.	.	.	.	.	.	.	.	.	.	4e\	.	4e/	.	4e/	.	.	.	.	.	.	.	.	.	.	.	.	.	.
!!LO:PB:g=original
=55	=55	=55	=55	=55	=55	=55	=55	=55	=55	=55	=55	=55	=55	=55	=55	=55	=55	=55	=55	=55	=55	=55	=55	=55	=55	=55	=55	=55	=55	=55	=55	=55	=55
!	!	!	!	!	!	!	!	!	!	!	!	!	!	!	!	!	!LO:TX:t=P:problem:t. 55-56 zapisane jako unisono 1 skrzypiec	!	!	!	!	!	!	!	!	!	!	!	!	!LO:TX:a:t=P:problem:dwie końcówki ligatury	!	!	!
2.ryy	4A'\	.	2.r	.	.	2.r	.	.	2.r	.	.	2.r	.	.	4a\	.	4a/yy	.	4a/	.	2.a_ 2.c#X/_	.	[2.A\	.	[2.ee/	2.ee\	.	2.ee_ 2.a\_>	.	2.cc#\_	.	2.aa\_	.
.	4E\	.	.	.	.	.	.	.	.	.	.	.	.	.	4e\	.	4e/yy	.	4e/	.	.	.	.	.	.	.	.	.	.	.	.	.	.
.	4C#\	.	.	.	.	.	.	.	.	.	.	.	.	.	4c#\	.	4c#/yy	.	4c#/	.	.	.	.	.	.	.	.	.	.	.	.	.	.
=56	=56	=56	=56	=56	=56	=56	=56	=56	=56	=56	=56	=56	=56	=56	=56	=56	=56	=56	=56	=56	=56	=56	=56	=56	=56	=56	=56	=56	=56	=56	=56	=56	=56
2.ryy	4AA/	.	2.r	.	.	2.r	.	.	2.r	.	.	2.r	.	.	4A/	.	4A/yy	.	4A/	.	4a] 4c#X/]	.	4A\]	.	4ee/]	4ee\	.	4ee] 4a\]	.	4cc#\]	.	4aa\]	.
.	4r	.	.	.	.	.	.	.	.	.	.	.	.	.	4r	.	4ryy	.	4r	.	4r	.	4r	.	4r	4rcyy	.	4r	.	4r	.	4r	.
!	!	!	!	!	!	!	!	!	!	!	!	!	!	!	!	!	!	!	!LO:TX:b:t=arco	!	!	!	!	!	!	!	!	!	!	!	!	!	!
.	4r	.	.	.	.	.	.	.	.	.	.	.	.	.	4r	.	4ryy	.	4r	.	4r	.	4r	.	4r	4rcyy	.	4r	.	4r	.	4r	.
=57	=57	=57	=57	=57	=57	=57	=57	=57	=57	=57	=57	=57	=57	=57	=57	=57	=57	=57	=57	=57	=57	=57	=57	=57	=57	=57	=57	=57	=57	=57	=57	=57	=57
*	*^	*	*	*	*	*	*	*	*	*	*	*	*	*	*	*	*	*	*	*	*	*	*	*	*	*	*	*	*	*	*	*	*
!	!	!	!LO:DY:b	!	!	!	!	!	!	!	!	!	!	!	!	!	!LO:DY:rj	!	!	!	!LO:DY:rj	!	!	!	!LO:DY:a:rj	!	!	!	!	!	!	!	!	!
2.ryy	4A 4E 4AA/	4A 4AA\	f	4ryy	.	.	4ryy	.	.	4ryy	.	.	4ryy	.	.	4a 4e 4A\	f	4cc# 4e 4A/	.	4aa 4cc# 4e\	f	4a 4c#X/	.	4A 4AA\	f	4ee/	4ee\	.	4ee 4cc#\	f	4aa\	.	4aaa\	f
.	4r	2ryy	.	4r	.	.	4r	.	.	4r	.	.	4r	.	.	4ryy	.	4ryy	.	4ryy	.	4ryy	.	4ryy	.	4ryy	2ryy	.	4ryy	.	4ryy	.	4ryy	.
.	4r;	.	.	4r;	.	.	4r;	.	.	4r;	.	.	4r;	.	.	4r;	.	4r;	.	4r;	.	4r;	.	4r;	.	4r;	.	.	4r;	.	4r;	.	4r;	.
*	*v	*v	*	*	*	*	*	*	*	*	*	*	*	*	*	*	*	*	*	*	*	*	*	*	*	*v	*v	*	*	*	*	*	*	*
==	==	==	==	==	==	==	==	==	==	==	==	==	==	==	==	==	==	==	==	==	==	==	==	==	==	==	==	==	==	==	==	==
*-	*-	*-	*-	*-	*-	*-	*-	*-	*-	*-	*-	*-	*-	*-	*-	*-	*-	*-	*-	*-	*-	*-	*-	*-	*-	*-	*-	*-	*-	*-	*-	*-
!!!system-decoration: [<(g1)>({g2}p9){g3}<p14><p15>]
!!!RDF**kern: > = above
!!!RDF**kern: < = below
!!!RDF**kern: | = vertical stroke
!!!ENC: Marta Lawrence
!!!END: 2021-04-29
!!!ENC: Marcin Jachim
!!!END: 2021-04-09
